storage/app/icons/tabler/outline/hexagonal-prism.svg

<!--
tags: [3d, pattern, abstract, geometric, shape, hexagonal, prism, geometry, form, figure]
category: Shapes
version: "2.20"
unicode: "faa5"
-->
<svg
  xmlns="http://www.w3.org/2000/svg"
  width="24"
  height="24"
  viewBox="0 0 24 24"
  fill="none"
  stroke="currentColor"
  stroke-width="2"
  stroke-linecap="round"
  stroke-linejoin="round"
>
  <path d="M20.792 6.996l-3.775 2.643a2.005 2.005 0 0 1 -1.147 .361h-7.74c-.41 0 -.81 -.126 -1.146 -.362l-3.774 -2.641" />
  <path d="M8 10v11" />
  <path d="M16 10v11" />
  <path d="M3.853 18.274l3.367 2.363a2 2 0 0 0 1.147 .363h7.265c.41 0 .811 -.126 1.147 -.363l3.367 -2.363c.536 -.375 .854 -.99 .854 -1.643v-9.262c0 -.655 -.318 -1.268 -.853 -1.643l-3.367 -2.363a2 2 0 0 0 -1.147 -.363h-7.266c-.41 0 -.811 .126 -1.147 .363l-3.367 2.363a2.006 2.006 0 0 0 -.853 1.644v9.261c0 .655 .318 1.269 .853 1.644" />
</svg>

<svg xmlns="http://www.w3.org/2000/svg" width="24" height="24" fill="none" stroke="currentColor" stroke-linecap="round" stroke-linejoin="round" stroke-width="2" viewBox="0 0 24 24"><path d="m20.792 6.996-3.775 2.643A2 2 0 0 1 15.87 10H8.13c-.41 0-.81-.126-1.146-.362L3.21 6.997M8 10v11m8-11v11"/><path d="m3.853 18.274 3.367 2.363A2 2 0 0 0 8.367 21h7.265c.41 0 .811-.126 1.147-.363l3.367-2.363c.536-.375.854-.99.854-1.643V7.369c0-.655-.318-1.268-.853-1.643L16.78 3.363A2 2 0 0 0 15.633 3H8.367c-.41 0-.811.126-1.147.363L3.853 5.726A2 2 0 0 0 3 7.37v9.261c0 .655.318 1.269.853 1.644"/></svg>
